svgs/sharp-solid/people-dress-simple.svg

<svg xmlns="http://www.w3.org/2000/svg" viewBox="0 0 512 512"><!--! Font Awesome Pro 6.6.0 by @fontawesome - https://fontawesome.com License - https://fontawesome.com/license (Commercial License) Copyright 2024 Fonticons, Inc. --><path d="M128 128A64 64 0 1 0 128 0a64 64 0 1 0 0 128zM256 384L192 160 64 160 0 384l64 0 0 128 128 0 0-128 64 0zm0 0l64 0 0 128 128 0 0-128 64 0L448 160l-128 0L256 384zM384 128A64 64 0 1 0 384 0a64 64 0 1 0 0 128z"/></svg>

<svg xmlns="http://www.w3.org/2000/svg" viewBox="0 0 512 512"><!--! Font Awesome Pro 6.4.2 by @fontawesome - https://fontawesome.com License - https://fontawesome.com/license (Commercial License) Copyright 2023 Fonticons, Inc. --><path d="M128 128A64 64 0 1 0 128 0a64 64 0 1 0 0 128zM256 384L192 160H64L0 384H64V512H192V384h64zm0 0h64V512H448V384h64L448 160H320L256 384zM384 128A64 64 0 1 0 384 0a64 64 0 1 0 0 128z"/></svg>
